lib/logotmp/nrk-logo-nrk-innlandet-title-below-on-dark.svg

<svg width="75" height="41" viewBox="0 0 75 41" fill="none" xmlns="http://www.w3.org/2000/svg">
<path d="M0 17.9975V5.99862H4V17.9975H0ZM9.24381 7.90831L11.5081 17.9975H7.19917L4.49549 5.99862H6.91217C7.46635 5.99143 8.00406 6.18678 8.4245 6.54792C8.84562 6.89391 9.08495 7.37423 9.24381 7.90831ZM12 17.9975V5.99862H16V17.9975H12ZM19.0105 10.5616C18.5862 10.5658 18.1687 10.4548 17.8025 10.2405C17.4412 10.0316 17.1411 9.73149 16.9323 9.37013C16.7178 9.00386 16.6068 8.58629 16.611 8.16185C16.6061 7.73999 16.7172 7.32491 16.9323 6.96195C17.1433 6.60452 17.4431 6.30762 17.8025 6.10005C18.1689 5.88603 18.5862 5.77504 19.0105 5.77891C19.4322 5.77437 19.8471 5.88546 20.2102 6.10005C20.566 6.30944 20.8626 6.60609 21.072 6.96195C21.2868 7.32501 21.3979 7.74002 21.3933 8.16185C21.3973 8.58625 21.2863 9.00375 21.072 9.37013C20.8649 9.7299 20.5679 10.0298 20.2102 10.2405C19.8471 10.4555 19.4324 10.5666 19.0105 10.5616ZM22 17.9975V5.99862H26V17.9975H22ZM30.9737 12.5558C30.9848 12.5674 31.0693 12.7054 31.2272 12.9698C31.3851 13.2342 31.5906 13.5722 31.8439 13.9838C32.0974 14.3952 32.3649 14.8318 32.6463 15.2935C32.9278 15.7553 33.1926 16.1919 33.4408 16.6033C33.6881 17.0147 33.9697 17.4795 34.2857 17.9975H29.9598C29.6893 17.5581 29.4441 17.161 29.2245 16.8061C29.0048 16.4512 28.7713 16.0681 28.5238 15.6569C28.2758 15.246 28.0306 14.8461 27.7882 14.457C27.5458 14.0679 27.3375 13.7271 27.1633 13.4346C26.9883 13.1418 26.8671 12.9446 26.7997 12.8431C26.6325 12.591 26.5336 12.2998 26.5127 11.9981C26.5294 11.7085 26.6226 11.4285 26.7828 11.1866C26.8503 11.074 26.9743 10.874 27.1545 10.5867C27.3348 10.2994 27.546 9.95858 27.7882 9.56425C28.0304 9.16992 28.2756 8.76713 28.5238 8.3559C28.772 7.94467 29.0055 7.55876 29.2245 7.19823C29.4445 6.83808 29.6897 6.43811 29.9598 5.99834H34.2857L30.9396 11.457C30.8361 11.6191 30.7777 11.8059 30.7706 11.9981C30.7818 12.1998 30.8528 12.3938 30.9737 12.5558Z" fill="white"/>
<g clip-path="url(#clip0_5918_1825)">
<path d="M0 23H1.77333V34.9911H0V23ZM11.1467 26.5467C10.7188 26.3102 10.1784 26.192 9.52533 26.192C9.04119 26.192 8.55985 26.268 8.08133 26.42C7.60281 26.572 7.14963 26.7887 6.72178 27.0702C6.55852 27.1772 6.40089 27.2954 6.24889 27.4164V26.2089L4.52622 26.4622V34.9911H6.24889V28.5761C6.41496 28.4804 6.58385 28.3904 6.764 28.3115C7.00607 28.2046 7.24815 28.1117 7.49022 28.0329C7.7323 27.9541 7.97437 27.895 8.21644 27.8555C8.45852 27.8161 8.69215 27.7964 8.91733 27.7964C9.23259 27.7964 9.50282 27.8387 9.728 27.9231C9.95319 28.0075 10.139 28.1342 10.2853 28.3031C10.4317 28.472 10.5387 28.6859 10.6062 28.9449C10.6738 29.2038 10.7076 29.5078 10.7076 29.8569V34.9911H12.4302V29.5022C12.4302 28.7366 12.3233 28.1117 12.1093 27.6275C11.8954 27.1434 11.5745 26.7831 11.1467 26.5467ZM21.6009 26.5467C21.173 26.3102 20.6326 26.192 19.9796 26.192C19.4954 26.192 19.0141 26.268 18.5356 26.42C18.057 26.572 17.6039 26.7887 17.176 27.0702C17.0127 27.1772 16.8551 27.2954 16.7031 27.4164V26.2089L14.9804 26.4622V34.9911H16.7031V28.5761C16.8692 28.4804 17.0381 28.3904 17.2182 28.3115C17.4603 28.2046 17.7024 28.1117 17.9444 28.0329C18.1865 27.9541 18.4286 27.895 18.6707 27.8555C18.9127 27.8161 19.1464 27.7964 19.3716 27.7964C19.6868 27.7964 19.957 27.8387 20.1822 27.9231C20.4074 28.0075 20.5932 28.1342 20.7396 28.3031C20.8859 28.472 20.9929 28.6859 21.0604 28.9449C21.128 29.2038 21.1618 29.5078 21.1618 29.8569V34.9911H22.8844V29.5022C22.8844 28.7366 22.7775 28.1117 22.5636 27.6275C22.3496 27.1434 22.0287 26.7831 21.6009 26.5467ZM28.0947 33.7498C28.044 33.7554 27.9849 33.7582 27.9173 33.7582C27.771 33.7582 27.6471 33.7357 27.5458 33.6907C27.4444 33.6456 27.36 33.5752 27.2924 33.4795C27.2249 33.3838 27.177 33.2628 27.1489 33.1164C27.1207 32.9701 27.1067 32.7955 27.1067 32.5929V22.24L25.384 22.4933V33.3529C25.384 33.6794 25.429 33.9581 25.5191 34.1889C25.6092 34.4197 25.7387 34.6083 25.9076 34.7547C26.0764 34.901 26.2763 35.0052 26.5071 35.0671C26.7379 35.129 26.9884 35.16 27.2587 35.16C27.3938 35.16 27.5233 35.1544 27.6471 35.1431C27.771 35.1318 27.892 35.115 28.0102 35.0924C28.1284 35.0699 28.227 35.0474 28.3058 35.0249L28.4747 33.6907L28.272 33.7244C28.2044 33.7357 28.1453 33.7441 28.0947 33.7498ZM37.7467 33.9102C37.8367 33.899 37.9324 33.8764 38.0338 33.8427L37.848 34.9742C37.7917 34.9967 37.727 35.0164 37.6538 35.0333C37.5806 35.0502 37.499 35.0699 37.4089 35.0924C37.3188 35.115 37.2259 35.129 37.1302 35.1347C37.0345 35.1403 36.936 35.1431 36.8347 35.1431C36.4744 35.1431 36.1535 35.084 35.872 34.9658C35.5905 34.8475 35.371 34.6561 35.2133 34.3915C35.1289 34.2508 35.0698 34.0847 35.0304 33.8933C34.9234 34.0172 34.8136 34.1382 34.6982 34.248C34.3886 34.5407 34.0339 34.7659 33.6342 34.9235C33.2345 35.0812 32.7588 35.16 32.2071 35.16C31.6104 35.16 31.1121 35.0474 30.7124 34.8222C30.3127 34.597 30.0144 34.3015 29.8173 33.9355C29.6203 33.5696 29.5218 33.1727 29.5218 32.7449C29.5218 32.2945 29.6484 31.8807 29.9018 31.5035C30.1551 31.1264 30.5407 30.8139 31.0587 30.5662C31.5766 30.3185 32.2296 30.1721 33.0178 30.1271L34.991 29.9948V29.5726C34.991 29.2461 34.96 28.9618 34.8924 28.7197C34.8249 28.4776 34.7123 28.2778 34.5547 28.1201C34.397 27.9625 34.1803 27.8443 33.9044 27.7655C33.6286 27.6867 33.288 27.6472 32.8827 27.6472C32.6575 27.6472 32.4295 27.6557 32.1987 27.6726C31.9679 27.6895 31.7342 27.7204 31.4978 27.7655C31.2613 27.8105 31.0164 27.8668 30.7631 27.9344C30.5098 28.0019 30.2424 28.0864 29.9609 28.1877L30.1636 26.7521C30.445 26.6395 30.7406 26.541 31.0502 26.4566C31.3598 26.3721 31.6892 26.3074 32.0382 26.2624C32.3873 26.2173 32.7419 26.1948 33.1022 26.1948C33.5976 26.1948 34.0424 26.2398 34.4364 26.3299C34.8305 26.42 35.1711 26.5495 35.4582 26.7184C35.7453 26.8872 35.979 27.0955 36.1591 27.3432C36.3393 27.591 36.4744 27.8781 36.5644 28.2046C36.6545 28.5311 36.6996 28.8914 36.6996 29.2855L36.6658 32.7646C36.6545 33.1812 36.7164 33.4795 36.8516 33.6597C36.9867 33.8398 37.2062 33.9299 37.5102 33.9299C37.5778 33.9299 37.6566 33.9243 37.7467 33.913V33.9102ZM34.9797 32.8997L34.9881 31.2249H33.5104C32.9587 31.2249 32.5196 31.2699 32.193 31.36C31.8665 31.4501 31.6301 31.5908 31.4837 31.7822C31.3373 31.9736 31.2641 32.2382 31.2641 32.576C31.2641 32.835 31.3204 33.0573 31.433 33.2431C31.5456 33.4289 31.7117 33.5724 31.9313 33.6738C32.1508 33.7751 32.4182 33.8258 32.7335 33.8258C32.9812 33.8258 33.2204 33.8032 33.4513 33.7582C33.6821 33.7132 33.9016 33.64 34.1099 33.5387C34.3182 33.4373 34.5153 33.3135 34.701 33.1671C34.7996 33.0883 34.8924 32.9982 34.9825 32.9025L34.9797 32.8997ZM46.2587 26.5438C45.8308 26.3074 45.2904 26.1892 44.6373 26.1892C44.1532 26.1892 43.6718 26.2652 43.1933 26.4172C42.7148 26.5692 42.2616 26.7859 41.8338 27.0674C41.6705 27.1744 41.5129 27.2926 41.3609 27.4136V26.2061L39.6382 26.4594V34.9883H41.3609V28.5733C41.527 28.4776 41.6959 28.3875 41.876 28.3087C42.1181 28.2018 42.3601 28.1089 42.6022 28.0301C42.8443 27.9512 43.0864 27.8921 43.3284 27.8527C43.5705 27.8133 43.8041 27.7936 44.0293 27.7936C44.3446 27.7936 44.6148 27.8358 44.84 27.9203C45.0652 28.0047 45.251 28.1314 45.3973 28.3003C45.5437 28.4692 45.6507 28.6831 45.7182 28.9421C45.7858 29.201 45.8196 29.505 45.8196 29.8541V34.9883H47.5422V29.4994C47.5422 28.7338 47.4353 28.1089 47.2213 27.6247C47.0074 27.1406 46.6865 26.7803 46.2587 26.5438ZM56.0036 22.4933L57.7262 22.2569V34.9911H56.3244L56.1133 34.2114C55.9867 34.3043 55.86 34.3915 55.7333 34.4675C55.3505 34.704 54.9593 34.8785 54.5596 34.9911C54.1599 35.1037 53.7348 35.16 53.2844 35.16C52.5076 35.16 51.8404 34.9883 51.2831 34.6449C50.7258 34.3015 50.2979 33.8145 49.9996 33.184C49.7012 32.5535 49.552 31.8047 49.552 30.9378C49.552 29.9244 49.749 29.0659 50.1431 28.3622C50.5372 27.6585 51.0579 27.1209 51.7053 26.7493C52.3527 26.3778 53.0536 26.192 53.808 26.192C54.2359 26.192 54.6271 26.2286 54.9818 26.3018C55.3364 26.375 55.6601 26.4678 55.9529 26.5804C55.9698 26.5861 55.9867 26.5945 56.0036 26.603V22.4933ZM56.0036 33.1024V27.8978C55.9163 27.8668 55.8234 27.8302 55.7418 27.8049C55.4772 27.7204 55.2154 27.6585 54.9564 27.6191C54.6975 27.5797 54.4273 27.56 54.1458 27.56C53.5603 27.56 53.0564 27.681 52.6342 27.9231C52.212 28.1652 51.8883 28.5198 51.6631 28.9871C51.4379 29.4544 51.3253 30.037 51.3253 30.7351C51.3253 31.4332 51.4267 31.9933 51.6293 32.4493C51.832 32.9053 52.1247 33.2431 52.5076 33.4627C52.8904 33.6822 53.352 33.792 53.8924 33.792C54.2527 33.792 54.6553 33.7104 55.1 33.5471C55.3843 33.443 55.6855 33.291 56.0036 33.1024ZM67.5978 29.0124C67.7385 29.6204 67.7695 30.3185 67.6907 31.1067H61.5881C61.6107 31.5373 61.6698 31.9089 61.7711 32.2213C61.9006 32.6154 62.092 32.9278 62.3453 33.1587C62.5987 33.3895 62.9111 33.5527 63.2827 33.6484C63.6542 33.7441 64.0933 33.792 64.6 33.792C64.8477 33.792 65.0954 33.7779 65.3431 33.7498C65.5908 33.7216 65.8329 33.6766 66.0693 33.6147C66.3058 33.5527 66.5338 33.4824 66.7533 33.4035C66.9729 33.3247 67.1896 33.2459 67.4036 33.1671L67.2853 34.4675C66.9813 34.6252 66.6773 34.7547 66.3733 34.856C66.0693 34.9573 65.7456 35.0333 65.4022 35.084C65.0588 35.1347 64.6619 35.16 64.2116 35.16C63.2658 35.16 62.4664 34.9939 61.8133 34.6618C61.1603 34.3296 60.6677 33.8398 60.3356 33.1924C60.0034 32.545 59.8373 31.7597 59.8373 30.8364C59.8373 30.1384 59.9302 29.505 60.116 28.9364C60.3018 28.3678 60.572 27.8809 60.9267 27.4755C61.2813 27.0702 61.712 26.755 62.2187 26.5298C62.7253 26.3046 63.2996 26.192 63.9413 26.192C64.5831 26.192 65.1545 26.299 65.6556 26.5129C66.1566 26.7268 66.5704 27.0449 66.8969 27.4671C67.2234 27.8893 67.457 28.4044 67.5978 29.0124ZM61.8387 28.9195C61.7345 29.1954 61.667 29.5304 61.6247 29.9075H66.0665C66.0665 29.5698 66.0271 29.2517 65.9427 28.9618C65.8132 28.5114 65.5852 28.1595 65.2587 27.9062C64.9321 27.6529 64.4987 27.5262 63.9582 27.5262C63.4178 27.5262 63.0012 27.6416 62.6409 27.8724C62.2806 28.1032 62.0132 28.4523 61.8387 28.9195ZM74.5138 33.5809C74.435 33.5978 74.3477 33.6147 74.252 33.6315C74.1563 33.6484 74.0606 33.6653 73.9649 33.6822C73.8692 33.6991 73.7763 33.7104 73.6862 33.716C73.5961 33.7216 73.5117 33.7244 73.4329 33.7244C73.1401 33.7244 72.8896 33.6738 72.6813 33.5724C72.473 33.4711 72.3126 33.3219 72.2 33.1249C72.0874 32.9278 72.0311 32.6886 72.0311 32.4071V27.7289H74.4124L74.5982 26.3778H72.0311V23.7093L70.3084 24.3173V26.3778H69.008L68.8222 27.7289H70.3084V32.7618C70.3084 33.1446 70.3591 33.4739 70.4604 33.7498C70.5618 34.0256 70.6941 34.2536 70.8573 34.4338C71.0206 34.6139 71.212 34.7547 71.4316 34.856C71.6511 34.9573 71.8847 35.0305 72.1324 35.0755C72.3801 35.1206 72.6222 35.1431 72.8587 35.1431C73.0388 35.1431 73.2161 35.1375 73.3907 35.1262C73.5652 35.115 73.7256 35.0981 73.872 35.0755C74.0184 35.053 74.1563 35.0277 74.2858 34.9995C74.4153 34.9714 74.525 34.9461 74.6151 34.9235L74.7164 33.5218C74.6601 33.5443 74.5926 33.564 74.5138 33.5809Z" fill="#9FDAF5"/>
</g>
<defs>
<clipPath id="clip0_5918_1825">
<rect width="75" height="14" fill="white" transform="translate(0 22)"/>
</clipPath>
</defs>
</svg>

<svg xmlns="http://www.w3.org/2000/svg" viewBox="0 0 75 41"><path fill="#fff" d="M0 17.997V6h4v11.998H0ZM9.244 7.908l2.264 10.09H7.2l-2.704-12h2.417a2.276 2.276 0 0 1 1.513.55c.42.346.66.826.819 1.36ZM12 17.998v-12h4v12h-4Zm7.01-7.436a2.382 2.382 0 0 1-2.4-2.4 2.301 2.301 0 0 1 .322-1.2A2.41 2.41 0 0 1 20.21 6.1c.356.21.653.506.862.862.215.363.326.778.321 1.2a2.35 2.35 0 0 1-.321 1.208 2.4 2.4 0 0 1-.862.87 2.3 2.3 0 0 1-1.2.322ZM22 17.997V6h4v11.998h-4Zm8.974-5.441c.01.011.095.15.253.414s.364.602.617 1.014a315.936 315.936 0 0 1 1.597 2.62c.247.41.529.876.845 1.393H29.96c-.27-.439-.516-.836-.736-1.19-.22-.356-.453-.739-.7-1.15-.248-.411-.493-.81-.736-1.2-.242-.39-.45-.73-.625-1.022-.175-.293-.296-.49-.363-.592a1.747 1.747 0 0 1-.287-.845c.016-.29.11-.57.27-.811.067-.113.191-.313.371-.6a182.106 182.106 0 0 0 1.37-2.23l.7-1.159.736-1.2h4.326l-3.346 5.459a1.08 1.08 0 0 0-.17.541c.012.202.083.396.204.558Z"/><g clip-path="url(#a)"><path fill="#9FDAF5" d="M0 23h1.773v11.991H0V23Zm11.147 3.547c-.428-.237-.969-.355-1.622-.355-.484 0-.965.076-1.444.228a5.484 5.484 0 0 0-1.36.65c-.162.107-.32.225-.472.346V26.21l-1.723.253v8.53H6.25v-6.416c.166-.096.335-.186.515-.265.242-.106.484-.2.726-.278.242-.079.484-.138.726-.178.243-.039.476-.059.701-.059.316 0 .586.043.811.127.225.085.411.211.557.38.147.169.254.383.321.642.068.259.102.563.102.912v5.134h1.722v-5.489c0-.765-.107-1.39-.32-1.874-.215-.485-.535-.845-.963-1.081Zm10.454 0c-.428-.237-.968-.355-1.621-.355-.485 0-.966.076-1.444.228a5.484 5.484 0 0 0-1.36.65c-.163.107-.32.225-.473.346V26.21l-1.723.253v8.53h1.723v-6.416c.166-.096.335-.186.515-.265.242-.106.484-.2.726-.278.242-.079.485-.138.727-.178.242-.039.475-.059.7-.059.316 0 .586.043.811.127.225.085.411.211.558.38.146.169.253.383.32.642.068.259.102.563.102.912v5.134h1.722v-5.489c0-.765-.107-1.39-.32-1.874-.214-.485-.535-.845-.963-1.081Zm6.494 7.203c-.051.005-.11.008-.178.008a.914.914 0 0 1-.371-.067.61.61 0 0 1-.254-.212.926.926 0 0 1-.143-.363 2.807 2.807 0 0 1-.042-.523V22.24l-1.723.253v10.86c0 .326.045.605.135.836.09.23.22.42.389.566.168.146.368.25.6.312.23.062.48.093.75.093a3.742 3.742 0 0 0 1.047-.135l.17-1.334-.203.033c-.068.012-.127.02-.177.026Zm9.652.16c.09-.011.185-.034.287-.067l-.186 1.131a1.335 1.335 0 0 1-.194.06c-.073.016-.155.036-.245.058-.09.023-.183.037-.279.043a5.06 5.06 0 0 1-.295.008c-.36 0-.681-.059-.963-.177a1.364 1.364 0 0 1-.659-.575 1.58 1.58 0 0 1-.183-.498 4.995 4.995 0 0 1-.332.355c-.31.293-.664.518-1.064.675-.4.158-.875.237-1.427.237-.597 0-1.095-.113-1.495-.338-.4-.225-.698-.52-.895-.887a2.472 2.472 0 0 1-.295-1.19c0-.45.126-.864.38-1.241.253-.378.639-.69 1.157-.938.518-.247 1.17-.394 1.959-.439l1.973-.132v-.422c0-.327-.031-.611-.099-.853a1.337 1.337 0 0 0-.337-.6c-.158-.158-.375-.276-.65-.355a3.774 3.774 0 0 0-1.022-.118c-.226 0-.454.009-.684.026-.231.017-.465.047-.701.093a10.372 10.372 0 0 0-1.537.422l.203-1.436c.281-.112.577-.211.886-.295.31-.085.64-.15.988-.195.35-.045.704-.067 1.064-.067.496 0 .94.045 1.334.135.395.09.735.22 1.022.388.287.17.521.378.701.625.18.248.315.535.405.862.09.326.136.686.136 1.08l-.034 3.48c-.011.416.05.715.186.895.135.18.354.27.658.27.068 0 .147-.006.237-.017v-.003ZM34.98 32.9l.008-1.675H33.51c-.551 0-.99.045-1.317.135-.326.09-.563.23-.71.422-.146.192-.219.456-.219.794 0 .259.056.481.169.667.113.186.279.33.498.43.22.102.487.153.802.153.248 0 .487-.023.718-.068.231-.045.45-.118.659-.22a2.746 2.746 0 0 0 .873-.636l-.003-.002Zm11.279-6.356c-.428-.237-.969-.355-1.622-.355-.484 0-.965.076-1.444.228a5.484 5.484 0 0 0-1.36.65c-.163.107-.32.226-.472.347v-1.208l-1.723.253v8.53h1.723v-6.416a5.22 5.22 0 0 1 .515-.264c.242-.107.484-.2.726-.279.242-.079.484-.138.726-.177.242-.04.476-.06.701-.06.316 0 .586.043.811.127.225.085.411.211.557.38.147.17.254.383.321.642.068.259.102.563.102.912v5.134h1.722V29.5c0-.765-.107-1.39-.32-1.874-.215-.484-.535-.845-.963-1.081Zm9.745-4.05 1.722-.237V34.99h-1.402l-.21-.78c-.127.093-.254.18-.38.257a4.607 4.607 0 0 1-1.174.523c-.4.113-.825.169-1.276.169-.776 0-1.444-.172-2-.515A3.353 3.353 0 0 1 50 33.184c-.299-.63-.448-1.38-.448-2.246 0-1.014.197-1.872.591-2.576.394-.703.915-1.241 1.562-1.613a4.153 4.153 0 0 1 2.103-.557 5.818 5.818 0 0 1 2.196.411v-4.11Zm0 10.608v-5.204c-.088-.031-.18-.068-.262-.093a5.104 5.104 0 0 0-1.596-.245c-.586 0-1.09.121-1.512.363a2.382 2.382 0 0 0-.97 1.064c-.226.467-.339 1.05-.339 1.748s.102 1.258.304 1.714c.203.456.496.794.879 1.014.382.22.844.329 1.384.329.36 0 .763-.082 1.208-.245a5.55 5.55 0 0 0 .904-.445Zm11.594-4.09c.14.608.171 1.306.093 2.095h-6.103c.023.43.082.802.183 1.114.13.394.321.707.574.938.254.23.566.394.938.49.371.095.81.143 1.317.143.248 0 .495-.014.743-.042.248-.028.49-.073.726-.135.237-.062.465-.133.684-.212.22-.078.437-.157.65-.236l-.118 1.3a6.32 6.32 0 0 1-.912.389 5.701 5.701 0 0 1-.97.228 8.24 8.24 0 0 1-1.191.076c-.946 0-1.746-.166-2.399-.498a3.303 3.303 0 0 1-1.477-1.47c-.333-.647-.499-1.432-.499-2.356 0-.698.093-1.331.279-1.9a4.14 4.14 0 0 1 .81-1.46c.355-.406.786-.721 1.293-.946.506-.225 1.08-.338 1.722-.338.642 0 1.213.107 1.715.32a3.06 3.06 0 0 1 1.24.955c.327.422.561.937.702 1.545Zm-5.76-.093c-.104.276-.171.611-.213.988h4.442c0-.337-.04-.655-.124-.945-.13-.45-.358-.802-.684-1.056-.327-.253-.76-.38-1.3-.38-.541 0-.958.116-1.318.346-.36.231-.628.58-.802 1.047Zm12.676 4.662a7.155 7.155 0 0 1-.262.05l-.287.051a2.493 2.493 0 0 1-.279.034c-.09.006-.174.008-.253.008-.293 0-.543-.05-.752-.152a1.09 1.09 0 0 1-.481-.447 1.425 1.425 0 0 1-.169-.718V27.73h2.381l.186-1.351h-2.567v-2.669l-1.723.608v2.06h-1.3l-.186 1.352h1.486v5.033c0 .383.051.712.152.988.102.276.234.504.397.684.164.18.355.32.575.422.22.101.453.175.7.22.248.045.49.067.727.067.18 0 .357-.005.532-.017a5.46 5.46 0 0 0 .481-.05 6.81 6.81 0 0 0 .414-.077c.13-.028.239-.053.33-.076l.1-1.401a1.267 1.267 0 0 1-.202.059Z"/></g><defs><clipPath id="a"><path fill="#fff" d="M0 22h75v14H0z"/></clipPath></defs></svg>
